src/food-drink/drink/1F9C9.svg

<svg id="emoji" viewBox="0 0 72 72" xmlns="http://www.w3.org/2000/svg">
  <g id="grid">
    <path fill="#b3b3b3" d="M68,4V68H4V4H68m4-4H0V72H72V0Z"/>
    <path fill="none" stroke="#00a5ff" stroke-miterlimit="10" stroke-width="0.1" d="M12.923,10.9583H59.0769A1.9231,1.9231,0,0,1,61,12.8814V59.0352a1.9231,1.9231,0,0,1-1.9231,1.9231H12.9231A1.9231,1.9231,0,0,1,11,59.0352V12.8813A1.923,1.923,0,0,1,12.923,10.9583Z"/>
    <rect x="16" y="4" rx="2.2537" width="40" height="64" fill="none" stroke="#00a5ff" stroke-miterlimit="10" stroke-width="0.1"/>
    <rect x="16" y="4" rx="2.2537" width="40" height="64" transform="translate(72) rotate(90)" fill="none" stroke="#00a5ff" stroke-miterlimit="10" stroke-width="0.1"/>
    <circle cx="36" cy="36" r="29" fill="none" stroke="#00a5ff" stroke-miterlimit="10" stroke-width="0.1"/>
  </g>
  <g id="color">
    <path fill="#f4aa41" d="m49.15 65.85c7.524-4.309 12.53-10.69 12.53-19.98 0-2.521-2.033-4.476-2.727-6.77l-5.336-8.306-32.2 0.51-5.61 5.587c-0.6942 2.295-2.597 8.88-2.597 11.4 0 9.292 3.599 13.25 11.12 17.56z"/>
    <path fill="#e27022" d="m58.9 39.03-5.066-7.885a0.7549 0.7549 0 0 0-0.6351-0.3468h-4.424a0.7549 0.7549 0 0 0-0.6717 1.099l1.514 2.952a16.01 16.01 0 0 1 1.351 3.691c0.2916 1.257 0.64 2.766 0.7695 3.349a22.91 22.91 0 0 1 0.5136 6.113c-0.4674 5.59-2.793 13.41-10.17 17.74a0.7889 0.7889 0 0 1-0.397 0.1074h11.26a0.7958 0.7958 0 0 0 0.4-0.1086c7.348-4.324 8.008-11.64 8.008-20.86 0-2.489-1.662-3.466-2.372-5.698a0.6811 0.6811 0 0 0-0.0745-0.1608z"/>
    <rect x="21.81" y="24.04" width="31.36" height="6.114" fill="#9b9b9a"/>
    <path fill="none" stroke="#9b9b9a" stroke-linecap="round" stroke-linejoin="round" stroke-width="2" d="m39.4 19.67 2.467-6.773c1.23-3.378 3.565-5.473 6.098-5.473h9.577"/>
  </g>
  <g id="line">
    <path fill="none" stroke="#000" stroke-linecap="round" stroke-linejoin="round" stroke-width="2" d="m37.2 30.8h16.42s8.005 10.28 8.211 16.97c0.1908 6.208-2.786 14.34-9.316 18.08h-29.99c-6.53-3.74-9.507-11.88-9.316-18.08 0.2057-6.694 8.211-16.97 8.211-16.97h16.42"/>
    <path fill="none" stroke="#000" stroke-linecap="round" stroke-linejoin="round" stroke-width="2" d="m37.54 19.5 2.766-7.63c1.379-3.805 3.996-6.165 6.836-6.165h10.4"/>
    <polyline fill="none" stroke="#000" stroke-linecap="round" stroke-linejoin="round" stroke-width="2" points="21.42 30.8 21.42 23.5 53.62 23.5 53.62 30.8"/>
  </g>
</svg>

<svg id="emoji" viewBox="0 0 72 72" xmlns="http://www.w3.org/2000/svg">
  <g id="grid">
    <path fill="#b3b3b3" d="M68,4V68H4V4H68m4-4H0V72H72V0Z"/>
    <path fill="none" stroke="#00a5ff" stroke-miterlimit="10" stroke-width="0.1" d="M12.923,10.9583H59.0769A1.9231,1.9231,0,0,1,61,12.8814V59.0352a1.9231,1.9231,0,0,1-1.9231,1.9231H12.9231A1.9231,1.9231,0,0,1,11,59.0352V12.8813A1.923,1.923,0,0,1,12.923,10.9583Z"/>
    <rect x="16" y="4" rx="2.2537" width="40" height="64" fill="none" stroke="#00a5ff" stroke-miterlimit="10" stroke-width="0.1"/>
    <rect x="16" y="4" rx="2.2537" width="40" height="64" transform="translate(72) rotate(90)" fill="none" stroke="#00a5ff" stroke-miterlimit="10" stroke-width="0.1"/>
    <circle cx="36" cy="36" r="29" fill="none" stroke="#00a5ff" stroke-miterlimit="10" stroke-width="0.1"/>
  </g>
  <g id="color">
    <path fill="#f4aa41" d="M49.1452,65.8506c7.5237-4.3092,12.5339-10.6876,12.5339-19.9794,0-2.5213-2.0331-4.4758-2.7273-6.77l-5.3364-8.3055-32.2.51-5.61,5.5867c-.6942,2.2947-2.597,8.88-2.597,11.4011,0,9.2918,3.5987,13.2487,11.1224,17.558Z"/>
    <path fill="#e27022" d="M58.9042,39.0266l-5.066-7.8846a.7549.7549,0,0,0-.6351-.3468H48.7789a.7549.7549,0,0,0-.6717,1.0994l1.5141,2.9516a16.0145,16.0145,0,0,1,1.3514,3.6913c.2916,1.2568.64,2.7665.7695,3.3493A22.9121,22.9121,0,0,1,52.2558,48c-.4674,5.59-2.7933,13.411-10.1707,17.7431a.7889.7889,0,0,1-.397.1074H52.9433a.7958.7958,0,0,0,.4-.1086C60.691,61.4183,61.3508,54.1,61.3508,44.8858c0-2.4893-1.6618-3.4656-2.3721-5.6984A.6811.6811,0,0,0,58.9042,39.0266Z"/>
    <rect x="21.8109" y="24.0366" width="31.3604" height="6.1143" fill="#e27022"/>
  </g>
  <g id="line">
    <path fill="none" stroke="#000" stroke-linecap="round" stroke-linejoin="round" stroke-width="2" d="M37.1962,30.7952H53.6154s8.005,10.277,8.2107,16.9707c.1908,6.2082-2.7862,14.3446-9.3164,18.0848H22.5211c-6.53-3.74-9.5071-11.8766-9.3163-18.0848.2057-6.6937,8.2107-16.9707,8.2107-16.9707H37.8347"/>
    <path fill="none" stroke="#000" stroke-linecap="round" stroke-linejoin="round" stroke-width="2" d="M37.5432,19.5l2.7656-7.63c1.3791-3.805,3.9957-6.1648,6.8356-6.1648H57.5432"/>
    <polyline fill="none" stroke="#000" stroke-linecap="round" stroke-linejoin="round" stroke-width="2" points="21.415 30.795 21.415 23.5 53.615 23.5 53.615 30.795"/>
  </g>
</svg>
